svgs/thin/camera-polaroid.svg

<svg xmlns="http://www.w3.org/2000/svg" viewBox="0 0 576 512"><!--! Font Awesome Pro 6.0.0-alpha3 by @fontawesome - https://fontawesome.com License - https://fontawesome.com/license (Commercial License) --><path d="M568.1 327.3L512 256l.0001-176c0-26.51-21.49-48-48-48h-352c-26.51 0-48 21.49-48 48L64 256L7.01 327.3c-4.535 5.67-7.004 12.56-7.006 19.82L.0002 448c0 17.6 14.4 32 32 32h512c17.6 0 32-14.4 32-32l.0004-100.7C576 340 573.5 332.1 568.1 327.3zM76.5 265.1l3.502-4.383V80c0-17.64 14.36-32 31.1-32h352c17.64 0 32 14.36 32 32v181.6L555.5 336H20.54L76.5 265.1zM560 448c0 8.822-7.178 16-16 16h-512c-8.822 0-16-7.178-16-16l.0039-96h543.1V448zM428 96h-24c-11.03 0-20 8.969-20 20v24c0 11.03 8.969 20 20 20h24c11.03 0 20-8.969 20-20v-24C448 104.1 439 96 428 96zM432 140c0 2.172-1.828 4-4 4h-24c-2.172 0-4-1.828-4-4v-24c0-2.172 1.828-4 4-4h24c2.172 0 4 1.828 4 4V140zM288 112c-44.11 0-80 35.89-80 80s35.89 80 80 80s80-35.89 80-80S332.1 112 288 112zM288 256c-35.3 0-64-28.7-64-64s28.7-64 64-64s64 28.7 64 64S323.3 256 288 256zM104 416h368c4.422 0 8-3.578 8-8s-3.578-8-8-8h-368c-4.422 0-8 3.578-8 8S99.58 416 104 416z"/></svg>

<svg xmlns="http://www.w3.org/2000/svg" viewBox="0 0 576 512"><!-- Font Awesome Pro 6.0.0-alpha2 by @fontawesome - https://fontawesome.com License - https://fontawesome.com/license (Commercial License) --><path d="M568.996 327.305L512 256V80C512 53.49 490.51 32 464 32H112C85.49 32 64 53.49 64 80V256L7.01 327.299C2.475 332.969 0.006 339.855 0.004 347.117C0.002 375.371 0 448 0 448C0 465.6 14.4 480 32 480H544C561.6 480 576 465.6 576 448V347.285C576 340.023 573.529 332.979 568.996 327.305ZM76.498 265.99L80 261.607V80C80 62.355 94.355 48 112 48H464C481.645 48 496 62.355 496 80V261.607L499.502 265.99L555.463 336H20.537L76.498 265.99ZM560 448C560 456.822 552.822 464 544 464H32C23.178 464 16 456.822 16 448L16.004 352H560V448ZM428 96H404C392.969 96 384 104.969 384 116V140C384 151.031 392.969 160 404 160H428C439.031 160 448 151.031 448 140V116C448 104.969 439.031 96 428 96ZM432 140C432 142.172 430.172 144 428 144H404C401.828 144 400 142.172 400 140V116C400 113.828 401.828 112 404 112H428C430.172 112 432 113.828 432 116V140ZM288 112C243.891 112 208 147.891 208 192S243.891 272 288 272S368 236.109 368 192S332.109 112 288 112ZM288 256C252.703 256 224 227.297 224 192S252.703 128 288 128S352 156.703 352 192S323.297 256 288 256ZM104 416H472C476.422 416 480 412.422 480 408S476.422 400 472 400H104C99.578 400 96 403.578 96 408S99.578 416 104 416Z"/></svg>
